X: 1
T: Mississippi Sawyer - D
R: reel
M: 4/4
L: 1/8
K: Dmaj
fg|:"D" a2 af a2 af|af a2 b2 a2|"G" g2 ef g2 ef|gf g2 a2 g2|
|:"D" d2 fe d2 fe|de fg a4|"A" e2 c2 A2 c2|AB cd ef ec|

